X:1
T: Little John's Hame
C:J. Scott Skinner
R:Strathspey
Q: 128
K:D
M:4/4
L:1/16
|:D4 A,3D F3D A3F|d4 c3d ((3B2c2d2) A3F|E4 B,3E GE3 g3f|((3e2f2d2) ((3c2d2B2) ((3A2B2G2) ((3F2G2E2) |
DD3 A,3D FD3 A3F|d4 c3d ((3B2c2d2) A3F|G3B ((3e2f2g2) ((3f2e2d2) ((3a2f2d2) |((3A2c2e2) a3c d4 d2A2|
f4 d3f ((3A2d2f2) a3g|f3d Ad3 FA3 D3f|((3g2a2b2) ((3e2f2g2) ((3B2e2g2) b3a|((3^g2a2b2) ((3e2f2=g2) ((3c2d2e2) A2ag|
f4 d3f ((3A2d2f2) a3g|f3d Ad3 FA3 D3F|G3B ((3e2f2g2) ((3f2e2d2) ((3a2f2d2) |1((3A2F2D2) A,3C D4 DGFE:|2((3A2F2D2) A,3C D4 D4||
